assets/images/facebook.svg

<svg width="202" height="202" viewBox="0 0 202 202" fill="none" xmlns="http://www.w3.org/2000/svg">
<rect x="0.5" y="0.5" width="201" height="201" rx="4.5" fill="#FAFAFA" stroke="#121212"/>
<path d="M109.368 102.842H128.165L131.117 83.6307H109.365V73.1307C109.365 65.1499 111.957 58.073 119.377 58.073H131.3V41.3076C129.205 41.023 124.775 40.3999 116.403 40.3999C98.9206 40.3999 88.6715 49.6884 88.6715 70.8499V83.6307H70.7002V102.842H88.6715V155.646C92.2306 156.185 95.8355 156.55 99.536 156.55C102.881 156.55 106.146 156.242 109.368 155.804V102.842Z" fill="#121212"/>
</svg>

<svg width="202" height="202" fill="none" xmlns="http://www.w3.org/2000/svg"><rect x=".5" y=".5" width="201" height="201" rx="4.5" fill="#FAFAFA" stroke="#121212"/><path d="M109.368 102.842h18.797l2.952-19.211h-21.752v-10.5c0-7.981 2.592-15.058 10.012-15.058H131.3V41.308c-2.095-.285-6.525-.908-14.897-.908-17.482 0-27.732 9.288-27.732 30.45v12.78h-17.97v19.212h17.97v52.804c3.56.539 7.164.904 10.865.904 3.345 0 6.61-.308 9.832-.746v-52.962Z" fill="#121212"/></svg>
